public/react.svg

<?xml version="1.0" ?><svg enable-background="new 0 0 128 128" viewBox="0 0 128 128" xmlns="http://www.w3.org/2000/svg"><g fill="#61DAFB"><circle cx="64" cy="47.5" r="9.3"/><path d="M64 81.7c7.3 7.1 14.5 11.3 20.3 11.3 1.9 0 3.7-.4 5.2-1.3 5.2-3 7.1-10.5 5.3-21.2-.3-1.9-.7-3.8-1.2-5.8 2-.6 3.8-1.2 5.6-1.8 10.1-3.9 15.7-9.3 15.7-15.2 0-6-5.6-11.4-15.7-15.2-1.8-.7-3.6-1.3-5.6-1.8.5-2 .9-3.9 1.2-5.8 1.7-10.9-.2-18.5-5.4-21.5-1.5-.9-3.3-1.3-5.2-1.3-5.7 0-13 4.2-20.3 11.3-7.2-7.1-14.4-11.3-20.2-11.3-1.9 0-3.7.4-5.2 1.3-5.2 3-7.1 10.5-5.3 21.2.3 1.9.7 3.8 1.2 5.8-2 .6-3.8 1.2-5.6 1.8-10.1 3.9-15.7 9.3-15.7 15.2 0 6 5.6 11.4 15.7 15.2 1.8.7 3.6 1.3 5.6 1.8-.5 2-.9 3.9-1.2 5.8-1.7 10.7.2 18.3 5.3 21.2 1.5.9 3.3 1.3 5.2 1.3 5.8.2 13-4 20.3-11zm-5.6-13.5c1.8.1 3.7.1 5.6.1 1.9 0 3.8 0 5.6-.1-1.8 2.4-3.7 4.6-5.6 6.7-1.9-2.1-3.8-4.3-5.6-6.7zm-12.4-10.3c1 1.7 1.9 3.3 3 4.9-3.1-.4-6-.9-8.8-1.5.9-2.7 1.9-5.5 3.1-8.3.8 1.6 1.7 3.3 2.7 4.9zm-5.8-24.1c2.8-.6 5.7-1.1 8.8-1.5-1 1.6-2 3.2-3 4.9-1 1.7-1.9 3.3-2.7 5-1.3-2.9-2.3-5.7-3.1-8.4zm5.5 13.7c1.3-2.7 2.7-5.4 4.3-8.1 1.5-2.6 3.2-5.2 4.9-7.8 3-.2 6-.3 9.1-.3 3.2 0 6.2.1 9.1.3 1.8 2.6 3.4 5.2 4.9 7.8 1.6 2.7 3 5.4 4.3 8.1-1.3 2.7-2.7 5.4-4.3 8.1-1.5 2.6-3.2 5.2-4.9 7.8-3 .2-6 .3-9.1.3-3.2 0-6.2-.1-9.1-.3-1.8-2.6-3.4-5.2-4.9-7.8-1.6-2.7-3-5.4-4.3-8.1zm39.1-5.4l-2.7-5c-1-1.7-1.9-3.3-3-4.9 3.1.4 6 .9 8.8 1.5-.9 2.8-1.9 5.6-3.1 8.4zm0 10.8c1.2 2.8 2.2 5.6 3.1 8.3-2.8.6-5.7 1.1-8.8 1.5 1-1.6 2-3.2 3-4.9.9-1.5 1.8-3.2 2.7-4.9zm2.3 34.7c-.8.5-1.8.7-2.9.7-4.9 0-11-4-17-10 2.9-3.1 5.7-6.6 8.5-10.5 4.7-.4 9.2-1.1 13.4-2.1.5 1.8.8 3.6 1.1 5.4 1.4 8.5.3 14.6-3.1 16.5zm5.2-52.7c11.2 3.2 17.9 8.1 17.9 12.6 0 3.9-4.6 7.8-12.7 10.9-1.6.6-3.4 1.2-5.2 1.7-1.3-4.1-2.9-8.3-4.9-12.6 2-4.3 3.7-8.5 4.9-12.6zm-8-28.2c1.1 0 2 .2 2.9.7 3.3 1.9 4.5 7.9 3.1 16.5-.3 1.7-.7 3.5-1.1 5.4-4.2-.9-8.7-1.6-13.4-2.1-2.7-3.9-5.6-7.4-8.5-10.5 6-5.9 12.1-10 17-10zm-14.7 20.1c-1.8-.1-3.7-.1-5.6-.1s-3.8 0-5.6.1c1.8-2.4 3.7-4.6 5.6-6.7 1.9 2.1 3.8 4.4 5.6 6.7zm-28.7-19.4c.8-.5 1.8-.7 2.9-.7 4.9 0 11 4 17 10-2.9 3.1-5.7 6.6-8.5 10.5-4.7.4-9.2 1.1-13.4 2.1-.5-1.8-.8-3.6-1.1-5.4-1.4-8.5-.3-14.5 3.1-16.5zm-5.2 52.7c-11.2-3.2-17.9-8.1-17.9-12.6 0-3.9 4.6-7.8 12.7-10.9 1.6-.6 3.4-1.2 5.2-1.7 1.3 4.1 2.9 8.3 4.9 12.6-2 4.3-3.7 8.6-4.9 12.6zm2.1 11c.3-1.7.7-3.5 1.1-5.4 4.2.9 8.7 1.6 13.4 2.1 2.7 3.9 5.6 7.4 8.5 10.5-6 5.9-12.1 10-17 10-1.1 0-2-.2-2.9-.7-3.4-1.9-4.5-8-3.1-16.5zM33.6 112.3c2.2-2.7 2.3-5.7 1.1-8.7-1.2-3-3.7-4.4-6.8-4.5-3.7-.1-7.5 0-11.2 0h-.7v25.9h3v-9.8h4.7c.6 0 1.1.2 1.4.7l6 9.3c.1.2.4.5.6.5h3.9c-2.4-3.7-4.7-7.2-7.1-10.8 2.1-.3 3.9-1 5.1-2.6zm-14.6-.2v-9.9h1.1c2.3 0 4.7-.1 7 .1 2.7.1 4.6 2.2 4.6 4.9s-2.2 4.8-4.9 4.9c-2.4.1-4.8 0-7.8 0zM57.7 113.4c-1.6-7-8-8.8-12.9-6.6-3.8 1.7-5.5 5-5.6 9.1-.1 3.1.8 5.9 3.2 8 2.7 2.4 6 2.7 9.4 2.1 1.9-.4 3.6-1.3 4.9-2.7-.5-.7-1-1.4-1.5-2-2.8 2.4-5.9 3.2-9.3 1.6-2.2-1.1-3.3-3.8-3.5-5.8h15.5v-1.3c.1-.9 0-1.7-.2-2.4zm-15.1 1.6c-.3-3 2.7-6.2 6-6.2 3.8-.1 6.2 2.2 6.3 6.2h-12.3zM73.3 106.3c-1.5-.3-3.1-.4-4.6-.3-2.4.2-4.5 1.3-6.2 3.1.5.7.9 1.4 1.5 2.2.2-.2.4-.4.6-.5 1.6-1.5 3.5-2.3 5.8-2.1 1.8.1 3.5.7 4 2.5.4 1.4.3 2.9.4 4.4-.3 0-.4-.1-.5-.2-2.4-2-5.1-2.4-8-1.7-2.7.7-4.4 2.8-4.6 5.5-.2 3.1 1.2 5.4 3.9 6.5 1.7.7 3.6.7 5.4.3 1.4-.3 2-1.1 4-2.2v1.3h2.8c0-4 .1-8.9 0-13.5 0-2.9-1.7-4.7-4.5-5.3zm1.4 12.6c-.1.3 0 .6 0 .9 0 2.1-.5 2.8-2.5 3.6-1.4.5-2.9.7-4.4.2-1.7-.5-2.9-2-2.9-3.7-.1-1.7 1-3.4 2.7-3.9 2.3-.8 4.4-.3 6.3 1.1.6.5 1 1 .8 1.8zM90.3 109c2.6-.8 5-.3 6.8 1.9l.3.2c.7-.6 1.3-1.2 2.1-1.9-.3-.3-.4-.5-.6-.8-2.9-3.1-8.6-3.5-12.1-1-4.9 3.6-4.8 10.6-2.4 14.3 2.3 3.5 5.6 4.7 9.5 4.2 2.3-.3 4.2-1.4 5.7-3.3-.7-.6-1.4-1.2-2.1-1.9-.2.2-.3.3-.4.5-2.7 3-7.2 2.7-9.6-.5-1.4-1.9-1.7-4.1-1.3-6.3.2-2.5 1.5-4.5 4.1-5.4zM111.1 122.6c-.2.1-.3.2-.3.2-.8.6-1.6.7-2.5.4-.9-.4-1-1.2-1.1-2v-11.4c0-.2 0 .2.1-.8h3.8v-3h-4v-5h-3v5.4h-2.6c-.2 0-.5.2-.5.4-.1.7 0 1.2 0 2.2h3.2v12.799999999999999c0 1.6.4 3 1.8 3.8 1.5.9 4.4.7 5.7-.4.2-.1.3-.5.3-.6-.3-.6-.6-1.3-.9-2z"/></g></svg>

<?xml version="1.0" ?><!DOCTYPE svg  PUBLIC '-//W3C//DTD SVG 1.1//EN'  'http://www.w3.org/Graphics/SVG/1.1/DTD/svg11.dtd'><svg height="100%" style="fill-rule:evenodd;clip-rule:evenodd;stroke-linejoin:round;stroke-miterlimit:2;" version="1.1" viewBox="0 0 128 128" width="100%" xml:space="preserve" xmlns="http://www.w3.org/2000/svg" xmlns:serif="http://www.serif.com/" xmlns:xlink="http://www.w3.org/1999/xlink"><g transform="matrix(1.25305,0,0,1.25305,-16.3076,4.57191)"><circle cx="64" cy="47.5" r="9.3" style="fill:rgb(97,218,251);"/><path d="M64,81.7C71.3,88.8 78.5,93 84.3,93C86.2,93 88,92.6 89.5,91.7C94.7,88.7 96.6,81.2 94.8,70.5C94.5,68.6 94.1,66.7 93.6,64.7C95.6,64.1 97.4,63.5 99.2,62.9C109.3,59 114.9,53.6 114.9,47.7C114.9,41.7 109.3,36.3 99.2,32.5C97.4,31.8 95.6,31.2 93.6,30.7C94.1,28.7 94.5,26.8 94.8,24.9C96.5,14 94.6,6.4 89.4,3.4C87.9,2.5 86.1,2.1 84.2,2.1C78.5,2.1 71.2,6.3 63.9,13.4C56.7,6.3 49.5,2.1 43.7,2.1C41.8,2.1 40,2.5 38.5,3.4C33.3,6.4 31.4,13.9 33.2,24.6C33.5,26.5 33.9,28.4 34.4,30.4C32.4,31 30.6,31.6 28.8,32.2C18.7,36.1 13.1,41.5 13.1,47.4C13.1,53.4 18.7,58.8 28.8,62.6C30.6,63.3 32.4,63.9 34.4,64.4C33.9,66.4 33.5,68.3 33.2,70.2C31.5,80.9 33.4,88.5 38.5,91.4C40,92.3 41.8,92.7 43.7,92.7C49.5,92.9 56.7,88.7 64,81.7ZM58.4,68.2C60.2,68.3 62.1,68.3 64,68.3C65.9,68.3 67.8,68.3 69.6,68.2C67.8,70.6 65.9,72.8 64,74.9C62.1,72.8 60.2,70.6 58.4,68.2ZM46,57.9C47,59.6 47.9,61.2 49,62.8C45.9,62.4 43,61.9 40.2,61.3C41.1,58.6 42.1,55.8 43.3,53C44.1,54.6 45,56.3 46,57.9ZM40.2,33.8C43,33.2 45.9,32.7 49,32.3C48,33.9 47,35.5 46,37.2C45,38.9 44.1,40.5 43.3,42.2C42,39.3 41,36.5 40.2,33.8ZM45.7,47.5C47,44.8 48.4,42.1 50,39.4C51.5,36.8 53.2,34.2 54.9,31.6C57.9,31.4 60.9,31.3 64,31.3C67.2,31.3 70.2,31.4 73.1,31.6C74.9,34.2 76.5,36.8 78,39.4C79.6,42.1 81,44.8 82.3,47.5C81,50.2 79.6,52.9 78,55.6C76.5,58.2 74.8,60.8 73.1,63.4C70.1,63.6 67.1,63.7 64,63.7C60.8,63.7 57.8,63.6 54.9,63.4C53.1,60.8 51.5,58.2 50,55.6C48.4,52.9 47,50.2 45.7,47.5ZM84.8,42.1L82.1,37.1C81.1,35.4 80.2,33.8 79.1,32.2C82.2,32.6 85.1,33.1 87.9,33.7C87,36.5 86,39.3 84.8,42.1ZM84.8,52.9C86,55.7 87,58.5 87.9,61.2C85.1,61.8 82.2,62.3 79.1,62.7C80.1,61.1 81.1,59.5 82.1,57.8C83,56.3 83.9,54.6 84.8,52.9ZM87.1,87.6C86.3,88.1 85.3,88.3 84.2,88.3C79.3,88.3 73.2,84.3 67.2,78.3C70.1,75.2 72.9,71.7 75.7,67.8C80.4,67.4 84.9,66.7 89.1,65.7C89.6,67.5 89.9,69.3 90.2,71.1C91.6,79.6 90.5,85.7 87.1,87.6ZM92.3,34.9C103.5,38.1 110.2,43 110.2,47.5C110.2,51.4 105.6,55.3 97.5,58.4C95.9,59 94.1,59.6 92.3,60.1C91,56 89.4,51.8 87.4,47.5C89.4,43.2 91.1,39 92.3,34.9ZM84.3,6.7C85.4,6.7 86.3,6.9 87.2,7.4C90.5,9.3 91.7,15.3 90.3,23.9C90,25.6 89.6,27.4 89.2,29.3C85,28.4 80.5,27.7 75.8,27.2C73.1,23.3 70.2,19.8 67.3,16.7C73.3,10.8 79.4,6.7 84.3,6.7ZM69.6,26.8C67.8,26.7 65.9,26.7 64,26.7C62.1,26.7 60.2,26.7 58.4,26.8C60.2,24.4 62.1,22.2 64,20.1C65.9,22.2 67.8,24.5 69.6,26.8ZM40.9,7.4C41.7,6.9 42.7,6.7 43.8,6.7C48.7,6.7 54.8,10.7 60.8,16.7C57.9,19.8 55.1,23.3 52.3,27.2C47.6,27.6 43.1,28.3 38.9,29.3C38.4,27.5 38.1,25.7 37.8,23.9C36.4,15.4 37.5,9.4 40.9,7.4ZM35.7,60.1C24.5,56.9 17.8,52 17.8,47.5C17.8,43.6 22.4,39.7 30.5,36.6C32.1,36 33.9,35.4 35.7,34.9C37,39 38.6,43.2 40.6,47.5C38.6,51.8 36.9,56.1 35.7,60.1ZM37.8,71.1C38.1,69.4 38.5,67.6 38.9,65.7C43.1,66.6 47.6,67.3 52.3,67.8C55,71.7 57.9,75.2 60.8,78.3C54.8,84.2 48.7,88.3 43.8,88.3C42.7,88.3 41.8,88.1 40.9,87.6C37.5,85.7 36.4,79.6 37.8,71.1Z" style="fill:rgb(97,218,251);fill-rule:nonzero;"/></g></svg>
